X:7991
T:Jim Crow Quadrilles (2). TLY.060
M:2/4
L:1/8
Q:160
S:Wm.Tildesley,Swinton,Lancs.1860s.
R:Quadrille
O:England.
A:Lancashire.
H:1860.
Z:Taz Tarry.
K:D
A|d3 f|a3 b|ageb| afdA| d3 f| a3a| dfac| d2z2||!
d| edcB| cA A2| Bcde| fd d2| edcB| cA A2| BF^GE| BAA a|! (b/a/g/f/) e
e/-g/| ff/c/ dd/^g/| BA za| (b/a/g/f/) ee/-g/| b/a/g/f/
 ee/g/| (fg/a/) (gg/b/)| a3a||


